X:1
T:[ID 1-96]
T:[ID 1-96]
T:Bezeichnung standardisiert: Schuster-Tanz; Schuster Sesken 4. In anderer Quelle: Schuster-Tanz - Tanzbuch aus Arendsee (Anm. S. Wascher);  Schuster-Tanz - Notenbuch Schroeder (Anm. S. Wascher);
T:Urheber unbekannt Erstbeleg: vor 1767 (Datum in der schriftlichen Quelle) Datum in der hier transkribierten schriftlichen Quelle: 1775
C:Urheber unbekannt
C:Erstbeleg: vor 1767 (Datum in der schriftlichen Quelle)
C:Datum in der hier transkribierten schriftlichen Quelle: 1775
L:1/8
M:4/4
K:D
V:1 treble 
V:1
 F2 F2 F2 F2 | EFGE C4 | d2 d2 d2 d2 | cdec A4 | [Ad]2 [FA]2 [Ad]2 [FA]2 | d2 de f4 | f2 ef gfed | %7
 c4 F4 :: F2 FFFFFF | (6:5:1E6 D C2 | d2 dddddd | (6:5:1c6 B A2 | d2 A2 d2 A2 | d2 de f4 | %14
 f2 ef gfed | c4 F4 :| %16

